svg/material-icons/spoke/materialiconstwotone/20px.svg

<svg xmlns="http://www.w3.org/2000/svg" width="20" height="20" viewBox="0 0 20 20"><path d="M10 7.5c-.83 0-1.5-.67-1.5-1.5s.67-1.5 1.5-1.5 1.5.67 1.5 1.5-.67 1.5-1.5 1.5zm4 8c-.83 0-1.5-.67-1.5-1.5s.67-1.5 1.5-1.5 1.5.67 1.5 1.5-.67 1.5-1.5 1.5zm-8 0c-.83 0-1.5-.67-1.5-1.5s.67-1.5 1.5-1.5 1.5.67 1.5 1.5-.67 1.5-1.5 1.5z" opacity=".3"/><path d="M10 3C8.34 3 7 4.34 7 6s1.34 3 3 3 3-1.34 3-3-1.34-3-3-3zm0 4.5c-.83 0-1.5-.67-1.5-1.5s.67-1.5 1.5-1.5 1.5.67 1.5 1.5-.67 1.5-1.5 1.5zm4 3.5c-1.66 0-3 1.34-3 3s1.34 3 3 3 3-1.34 3-3-1.34-3-3-3zm0 4.5c-.83 0-1.5-.67-1.5-1.5s.67-1.5 1.5-1.5 1.5.67 1.5 1.5-.67 1.5-1.5 1.5zM6 11c-1.66 0-3 1.34-3 3s1.34 3 3 3 3-1.34 3-3-1.34-3-3-3zm0 4.5c-.83 0-1.5-.67-1.5-1.5s.67-1.5 1.5-1.5 1.5.67 1.5 1.5-.67 1.5-1.5 1.5z"/></svg>

<svg xmlns="http://www.w3.org/2000/svg" enable-background="new 0 0 20 20" height="20" viewBox="0 0 20 20" width="20"><rect fill="none" height="20" width="20"/><path d="M10,7.5C9.17,7.5,8.5,6.83,8.5,6c0-0.83,0.67-1.5,1.5-1.5s1.5,0.67,1.5,1.5C11.5,6.83,10.83,7.5,10,7.5z M14,15.5c-0.83,0-1.5-0.67-1.5-1.5c0-0.83,0.67-1.5,1.5-1.5s1.5,0.67,1.5,1.5C15.5,14.83,14.83,15.5,14,15.5z M6,15.5 c-0.83,0-1.5-0.67-1.5-1.5c0-0.83,0.67-1.5,1.5-1.5s1.5,0.67,1.5,1.5C7.5,14.83,6.83,15.5,6,15.5z" opacity=".3"/><path d="M10,3C8.34,3,7,4.34,7,6c0,1.66,1.34,3,3,3s3-1.34,3-3C13,4.34,11.66,3,10,3z M10,7.5C9.17,7.5,8.5,6.83,8.5,6 c0-0.83,0.67-1.5,1.5-1.5s1.5,0.67,1.5,1.5C11.5,6.83,10.83,7.5,10,7.5z M14,11c-1.66,0-3,1.34-3,3c0,1.66,1.34,3,3,3s3-1.34,3-3 C17,12.34,15.66,11,14,11z M14,15.5c-0.83,0-1.5-0.67-1.5-1.5c0-0.83,0.67-1.5,1.5-1.5s1.5,0.67,1.5,1.5 C15.5,14.83,14.83,15.5,14,15.5z M6,11c-1.66,0-3,1.34-3,3c0,1.66,1.34,3,3,3s3-1.34,3-3C9,12.34,7.66,11,6,11z M6,15.5 c-0.83,0-1.5-0.67-1.5-1.5c0-0.83,0.67-1.5,1.5-1.5s1.5,0.67,1.5,1.5C7.5,14.83,6.83,15.5,6,15.5z"/></svg>
